!!!COM:	Busnoys, Antoine
!!!CDT:	~1430///-1492/11/06
!!!OTL:	En tous les lieux
!!!AGN:	Song; Chanson
!!!SCT:	Bus3018
!!!SCA:	Bus3018
!!!voices:	4
**kern	**kern	**kern	**kern
*staff4	*staff3	*staff2	*staff1
*Ivox	*Ivox	*Ivox	*Ivox
*I"Bassus	*I"Tenor	*I"Altus	*I"Superius
*I'B	*I'T	*I'A	*I'S
*>[A,B,B1,B,B2]	*>[A,B,B1,B,B2]	*>[A,B,B1,B,B2]	*>[A,B,B1,B,B2]
*>A	*>A	*>A	*>A
*clefF4	*clefGv2	*clefG2	*clefG2
*k[b-]	*k[b-]	*k[b-]	*k[]
*M3/1	*M3/1	*M3/1	*M3/1
*met(O)	*met(O)	*met(O)	*met(O)
=1-	=1-	=1-	=1-
!!LO:TX:Z=12:t=Virelai
0.F	0c	[0.f	0cc
.	1A	.	1cc
=2	=2	=2	=2
1D	2.B-	1f]	1dd
.	4A	.	.
0C	0c	0g	1.ee
.	.	.	4dd
.	.	.	4ee
=3	=3	=3	=3
2D	1A	1f	1ff
2F	.	.	.
1C	2G	2g	2ee
.	1c	2a	2cc
1G	.	1b-	1dd
.	2B-	.	.
=4	=4	=4	=4
2A	2c	1.a	1.cc
1F	2.f	.	.
.	4e	.	.
2A	4d	2f	2a
.	4c	.	.
2.G	2.B-	1g	1b-i
4F	4c	.	.
=5	=5	=5	=5
[0.D	1.d	1f	1a
.	.	1f	1r
.	2c	.	.
.	1A	1r	[1f
=6	=6	=6	=6
1D]	[0.d	1a	1f]
0G	.	1b-	0g
.	.	1b-	.
=7	=7	=7	=7
1D	1d]	1a	1f
2E	1r	2g	2e
2F	.	2a	1d
2G	1r	2b-	.
2A	.	[2cc	2c
=8	=8	=8	=8
1F	1A	2cc]	1f
.	.	2dd	.
1A	1c	2cc	2e
.	.	2a	2f
2G	2B-	2b-	2g
2F	2c	[2a	2a
=9	=9	=9	=9
1D	2F	4a]	1f
.	.	4g	.
.	1B-	2f	.
1C	.	2e	2g
.	4A	2c	1a
.	4G	.	.
1BB-	1B-	1d	.
.	.	.	4g
.	.	.	4f
=10	=10	=10	=10
0.C	0G	0c	1e
.	.	.	1r
.	1g	2r	1ee
.	.	2c	.
=11	=11	=11	=11
2r	2f	2d	2ff
2C	2e	2e	2.gg
2D	2d	1f	.
.	.	.	4ff
2F	1c	.	1ff
1C	.	1g	.
.	2G	.	2ee
=12	=12	=12	=12
2.F	2A	0f	1ff
.	2B-	.	.
4G	.	.	.
2A	2c	.	2cc
2B-	2r	.	2dd
1A	2.F	[1f	2cc
.	.	.	[2a
.	4G	.	.
=13	=13	=13	=13
1F	2.A	1f]	4a]
.	.	.	4b-i
.	.	.	1cc
.	4B-	.	.
1r	1c	0e	.
.	.	.	2a
1c	2r	.	2.g
.	2c	.	.
.	.	.	8fL
.	.	.	8eJ
=14	=14	=14	=14
2B-	2d	2f	2d
2A	2e	2.cc	1c
1F	1f	.	.
.	.	4b-	.
.	.	2a	1f
1c	2r	1g	.
.	2c	.	2e
=15	=15	=15	=15
[0.F	2d	1f	[0.f
.	2c	.	.
.	1A	2r	.
.	.	2a	.
.	2r	2b-	.
.	[2A	[2cc	.
=16	=16	=16	=16
1F]	4A]	2cc]	1f]
.	4B-	.	.
.	2.c	1a	.
1r	.	.	2r
.	4B-	.	.
.	2A	2f	2a
1r	2G	2g	2b-i
.	2F	2a	[2cc
=17	=17	=17	=17
0F	2.A	1.f	2cc]
.	.	.	1a
.	4B-	.	.
.	2c	.	.
.	2A	2d	2f
2E	2G	2e	2g
2D	[2F	[2f	2a
=18	=18	=18	=18
1F	2F]	2f]	1.f
.	2A	2cc	.
1B-	1G	2dd	.
.	.	2b-	2d
1A	2r	2.cc	2e
.	[2c	.	[2f
.	.	4a	.
=19	=19	=19	=19
1F	2c]	2.a	2f]
.	2A	.	2.ff
.	.	4f	.
2r	2.B-	1f	.
.	.	.	4ee
2BB-	.	.	4dd
.	4G	.	4cc
2C	2A	2r	2cc
[2BB-	[2B-	[2f	[2dd
=20	=20	=20	=20
2BB-]	4B-]	2f]	4dd]
.	4A	.	8ccL
.	.	.	8ddJ
1C	1G	2e	2.ee
.	.	1c	.
.	.	.	4ff
2C	1.g	.	4ee
.	.	.	8ddL
.	.	.	8ccJ
1G	.	1d	2.b
.	.	.	4a
=21	=21	=21	=21
1A	2.e	2c	1cc
.	.	2.f	.
.	4c	.	.
2.F	2.d	.	2r
.	.	4g	.
.	.	4a	2ff
4E	8cL	4b-	.
.	8dJ	.	.
1C	1e	2.cc	2ee
.	.	.	[2gg
.	.	8b-L	.
.	.	8aJ	.
=22	=22	=22	=22
2c	1r	2g	4gg]
.	.	.	8ffL
.	.	.	8eeJ
2d	.	2f	2dd
2.A	2.c	2.a	2cc
.	.	.	2.ee
4B-	4G	8gL	.
.	.	8fJ	.
2c	2A	2e	.
.	.	.	8ddL
.	.	.	8ccJ
2G	2B-	2d	2b-i
=23	=23	=23	=23
2r	1c	2.f	2a
2D	.	.	2.cc
.	.	8eL	.
.	.	8dJ	.
2.A	1A	2c	.
.	.	.	4b-i
.	.	1f	2a
4B-	.	.	.
1c	1r	.	1g
.	.	2e	.
=24	=24	=24	=24
0.Fl	0.cl	0.fl	0.fl
!!LO:LB:i:g=z
=25||	=25||	=25||!|:	=25||!|:
*>B	*>B	*>B	*>B
*clefF4	*clefGv2	*clefG2	*clefG2
*k[b-]	*k[b-]	*k[b-]	*k[]
*M2/1	*M2/1	*M2/1	*M2/1
*met(C|)	*met(C|)	*met(C|)	*met(C|)
!!section: Que pleust a dieu
!!!OMD:	Que pleust a dieu
0B-	0d	0f	0r
=26	=26	=26	=26
1G	1B-	1g	0r
1G	1B-	1g	.
=27	=27	=27	=27
1.F	1c	1.a	0f
.	1A	.	.
2E	.	4g	.
.	.	4f	.
=28	=28	=28	=28
1C	1G	1e	1g
1E	[1c	1e	1g
=29	=29	=29	=29
0D	1c]	0f	1.a
.	1Bni	.	.
.	.	.	4g
.	.	.	4f
=30	=30	=30	=30
0C	1.c	0g	1e
.	.	.	1e
.	2B-	.	.
=31	=31	=31	=31
1D	1A	1f	0f
1F	1F	[1f	.
=32	=32	=32	=32
0C	0c	1f]	0g
.	.	1e	.
=33	=33	=33	=33
1D	0F	1f	0f
[1F	.	[1cc	.
=34	=34	=34	=34
2F]	1r	2cc]	1r
2D	.	2b-	.
1F	1c	1a	[1ff
=35	=35	=35	=35
1C	1.c	0g	1ff]
1E	.	.	1ee
.	2G	.	.
=36	=36	=36	=36
1F	1A	1f	1dd
1E	1B-	[1g	[1ee
=37	=37	=37	=37
0C	1c	1g]	2ee]
.	.	.	2cc
.	[1G	1e	[1cc
=38	=38	=38	=38
0G	1G]	0d	1cc]
.	1g	.	1b
=39	=39	=39	=39
0A	0e	1r	0cc
.	.	[1c	.
=40	=40	=40	=40
0F	0f	1c]	1r
.	.	[1f	1cc
=41	=41	=41	=41
0r	1d	1f]	1dd
.	1B-	1g	1dd
=42	=42	=42	=42
0A	0F	1a	1cc
.	.	1cc	1a
=43	=43	=43	=43
1G	1r	1dd	1b-i
1G	1B-	1dd	1b-i
=44	=44	=44	=44
1A	1F	1cc	0a
1c	1F	1a	.
=45	=45	=45	=45
1G	1B-	1b-	0dd
1B-	1G	1b-	.
=46	=46	=46	=46
0F	1A	1a	1cc
.	[1c	1f	[1ff
=47	=47	=47	=47
0C	1c]	0g	2ff]
.	.	.	2ee
.	1c	.	2ee
.	.	.	2dd
!!LO:REP:start=1
=48	=48	=48	=48
*>B1	*>B1	*>B1	*>B1
0F	0A	0f	0ff
!!LO:REP:end=1
!!LO:REP:start=2
=49:|!	=49:|!	=49:|!	=49:|!
*>B2	*>B2	*>B2	*>B2
3%4FV	0A	3%4fV	3%2ffV
.	.	.	3%2dd
3%2GZ	.	3%2dZ	3%2ffZ
!!LO:REP:open=2
=50	=50	=50	=50
1A	0r	3%2cV	3%2eeV
.	.	3%2e	3%2cc
1r	.	.	.
.	.	3%2fZ	[3%2ddZ
=51	=51	=51	=51
1G	1B-	3%4gV	3%2dd]V
.	.	.	3%2.ee
[1A	[1c	.	.
.	.	3%2eZ	.
.	.	.	3ccZ
=52	=52	=52	=52
2A]	2c]	3%2fV	3%4ccV
2F	2A	.	.
.	.	3%4dZ	.
1G	2B-	.	.
.	.	.	3%2bZ
.	2A	.	.
=53	=53	=53	=53
3%2AV	3%2.FV	3%4cV	3%2ccV
3%2.F	.	.	3%4aZ
.	3G	.	.
.	3%2AZ	3%2fZ	.
3EZ	.	.	.
=54	=54	=54	=54
3%2DV	3%2B-V	3%4fV	3%2fV
3%4CZ	3%4cZ	.	3%2.g
.	.	3%2eZ	.
.	.	.	3fZ
=55	=55	=55	=55
0Fl	0Al	0fl	0fl
==	==	==	==
*-	*-	*-	*-
!!!RDF**kern: l=long note in original notation
!!!RDF**kern: i=editorial accidental
!!!RDF**kern: V=start of tuplet marker
!!!RDF**kern: Z=end of tuplet marker
!!!ENC:	Chris Gage 04-13-2015
!!!END:	2015/05/01/
!!!EED:	Jesse Rodin
!!!EEV:	2015/05/10/
!!!ONB:	Translated from MusicXML and edited on 2015/05/10/ by Craig Sapp
!!muse2ps: C^@{COM}^i2I150v85,85,85,150Q16c70
